flaticon/casino-gambling/poker-8.svg

<svg xmlns="http://www.w3.org/2000/svg" width="32" height="32" viewBox="0 0 24 24">
    <path d="M 19.601562 0 L 4.398438 0 C 3.71875 0 3.199219 0.519531 3.199219 1.199219 L 3.199219 22.800781 C 3.199219 23.480469 3.71875 24 4.398438 24 L 19.601562 24 C 20.28125 24 20.800781 23.480469 20.800781 22.800781 L 20.800781 1.199219 C 20.800781 0.519531 20.28125 0 19.601562 0 Z M 20 22.800781 C 20 23.039062 19.839844 23.199219 19.601562 23.199219 L 4.398438 23.199219 C 4.160156 23.199219 4 23.039062 4 22.800781 L 4 1.199219 C 4 0.960938 4.160156 0.800781 4.398438 0.800781 L 19.601562 0.800781 C 19.839844 0.800781 20 0.960938 20 1.199219 Z M 20 22.800781"/>
    <path d="M8 7.199219C8.878906 7.199219 9.601562 6.480469 9.601562 5.601562L9.601562 3.199219C9.601562 2.320312 8.878906 1.601562 8 1.601562 7.121094 1.601562 6.398438 2.320312 6.398438 3.199219L6.398438 5.601562C6.398438 6.480469 7.121094 7.199219 8 7.199219zM7.199219 3.199219C7.199219 2.761719 7.558594 2.398438 8 2.398438 8.441406 2.398438 8.800781 2.761719 8.800781 3.199219L8.800781 5.601562C8.800781 6.039062 8.441406 6.398438 8 6.398438 7.558594 6.398438 7.199219 6.039062 7.199219 5.601562zM16.480469 12.800781L12.640625 9.039062C12.28125 8.71875 11.761719 8.71875 11.359375 9.039062L7.480469 12.800781C6.320312 14 6.078125 15.441406 6.878906 16.601562 7.441406 17.441406 8.078125 17.878906 8.839844 17.960938 9.441406 18 9.960938 17.839844 10.359375 17.601562 10.28125 18.398438 10.078125 19.199219 10.039062 19.398438 10 19.519531 10.039062 19.679688 10.121094 19.800781 10.199219 19.921875 10.320312 20 10.480469 20L13.480469 20C13.640625 20 13.800781 19.921875 13.921875 19.839844 14 19.71875 14.039062 19.601562 14 19.441406 13.921875 19.160156 13.761719 18.398438 13.679688 17.640625 14.078125 17.878906 14.601562 18.078125 15.199219 18 15.960938 17.921875 16.601562 17.480469 17.160156 16.640625 17.960938 15.398438 17.71875 13.960938 16.480469 12.800781zM16.441406 16.199219C16.039062 16.800781 15.558594 17.160156 15.078125 17.199219 14.199219 17.28125 13.480469 16.519531 13.441406 16.519531L12.761719 15.839844 12.761719 16.800781C12.761719 17.601562 12.960938 18.601562 13.078125 19.199219L10.878906 19.199219C11.039062 18.601562 11.199219 17.640625 11.160156 16.800781L11.160156 15.839844 10.480469 16.519531C10.480469 16.519531 9.71875 17.238281 8.878906 17.160156 8.398438 17.121094 7.921875 16.761719 7.519531 16.160156 6.71875 14.960938 7.640625 13.800781 8.039062 13.359375L11.878906 9.640625C11.921875 9.601562 12.039062 9.601562 12.078125 9.640625L15.878906 13.398438C16.441406 13.921875 17.238281 15 16.441406 16.199219zM5.199219 1.601562C4.960938 1.601562 4.800781 1.761719 4.800781 2L4.800781 6.800781C4.800781 7.039062 4.960938 7.199219 5.199219 7.199219 5.441406 7.199219 5.601562 7.039062 5.601562 6.800781L5.601562 2C5.601562 1.761719 5.441406 1.601562 5.199219 1.601562zM5.199219 1.601562"/>
</svg>

<svg xmlns="http://www.w3.org/2000/svg" width="32" height="32" viewBox="0 0 24 24">
    <path d="M19.602 0H4.398C3.718 0 3.2.52 3.2 1.2v21.6c0 .68.52 1.2 1.2 1.2h15.203c.68 0 1.199-.52 1.199-1.2V1.2c0-.68-.52-1.2-1.2-1.2zM20 22.8c0 .24-.16.4-.398.4H4.398c-.238 0-.398-.16-.398-.4V1.2c0-.24.16-.4.398-.4h15.204c.238 0 .398.16.398.4zm0 0"/>
    <path d="M8 7.2c.879 0 1.602-.72 1.602-1.598V3.199c0-.879-.723-1.597-1.602-1.597-.879 0-1.602.718-1.602 1.597v2.403c0 .878.723 1.597 1.602 1.597zm-.8-4c0-.438.359-.802.8-.802.441 0 .8.364.8.801v2.403a.801.801 0 0 1-1.6 0zm0 0M16.48 12.8l-3.84-3.76c-.359-.321-.878-.321-1.28 0L7.48 12.8c-1.16 1.2-1.402 2.641-.601 3.802.562.84 1.2 1.277 1.96 1.359a2.616 2.616 0 0 0 1.52-.36c-.078.797-.28 1.598-.32 1.797-.039.122 0 .282.082.403.078.12.2.199.36.199h3c.16 0 .32-.078.44-.16.079-.121.118-.238.079-.399a13.503 13.503 0 0 1-.32-1.8c.398.238.922.437 1.52.359.76-.078 1.402-.52 1.96-1.36.8-1.242.559-2.68-.68-3.84zm-.039 3.4c-.402.6-.882.96-1.363 1-.879.081-1.598-.68-1.637-.68l-.68-.68v.96c0 .802.2 1.802.317 2.4h-2.2c.161-.598.321-1.56.282-2.4v-.96l-.68.68s-.761.718-1.601.64c-.48-.039-.957-.398-1.36-1-.8-1.2.122-2.36.52-2.8l3.84-3.72c.043-.038.16-.038.2 0l3.8 3.758c.562.524 1.36 1.602.562 2.801zm0 0M5.2 1.602c-.24 0-.4.16-.4.398v4.8c0 .24.16.4.4.4.241 0 .402-.16.402-.4V2c0-.238-.16-.398-.403-.398zm0 0"/>
</svg>
